static/images/mobile/copyright/wikipedia-wordmark-ga.svg

<?xml version="1.0" encoding="UTF-8"?>
<svg width="120px" height="22px" viewBox="0 0 120 22" version="1.1" xmlns="http://www.w3.org/2000/svg" xmlns:xlink="http://www.w3.org/1999/xlink">
    <title>wikipedia-wordmark-ga</title>
    <g id="Page-1" stroke="none" stroke-width="1" fill="none" fill-rule="evenodd">
        <path d="M16.5158544,1.10093997 C17.8429308,1.18002073 18.6098458,1.4522315 18.8166021,1.91747344 C19.0233215,2.38275246 18.9091026,3.06693687 18.4739372,3.97005141 L12.6403273,17.3481174 L12.4703796,17.3481174 L6.59243384,3.76987825 C6.13831132,2.80484596 6.02870786,2.14108662 6.26362208,1.77860023 C6.49852535,1.41616326 7.23126719,1.19027651 8.46185033,1.10093997 C8.572673,0.979971139 8.62809254,0.796540865 8.62810212,0.550476166 C8.62809391,0.304448535 8.57267026,0.12095648 8.46185033,0 C7.60595015,0.017422478 6.82394908,0.0327443735 6.11584302,0.0458421229 C5.407726,0.059063436 4.69961446,0.0659830017 3.9915084,0.0667243837 C3.29339813,0.0660571399 2.68534581,0.0593105633 2.16735008,0.0458421229 C1.64934888,0.0326208098 0.976642027,0.0172989143 0.149230893,0 C0.03994078,0.120968836 -0.00932529297,0.304448535 0.00145046318,0.550476166 C0.0122604281,0.796540865 0.073795127,0.980020564 0.186174975,1.10093997 C1.17945613,1.14826486 1.86216698,1.37063005 2.23431166,1.76817146 C2.60645222,2.16576229 3.02593223,2.95532181 3.4927503,4.13686237 L10.7893836,21.2180822 C10.8986737,21.4777512 11.021817,21.6706959 11.1588326,21.7969162 C11.2958263,21.9231241 11.4559205,21.9859563 11.639118,21.9854039 C11.8404556,21.982929 12.0122492,21.9149689 12.1545001,21.7806429 C12.2967251,21.6462921 12.420491,21.4587719 12.5257964,21.2180822 L20.1623237,4.20358675 C20.471564,3.40063293 20.8607172,2.71963645 21.3297849,2.16059733 C21.7988101,1.60159527 22.6202183,1.24837615 23.7940135,1.10093997 C23.9048225,0.979971139 23.9602653,0.796540865 23.9602653,0.550476166 C23.9602653,0.304448535 23.9048198,0.12095648 23.7940135,0 C23.0650976,0.017422478 22.4447301,0.0327443735 21.9329111,0.0458421229 C21.421047,0.059063436 20.9576963,0.0659830017 20.5428564,0.0667243837 C20.1118111,0.0660571399 19.5514786,0.0593105633 18.8618589,0.0458421229 C18.1722023,0.0326208098 17.3902013,0.0172989143 16.5158544,0 C16.4050043,0.120968836 16.3495848,0.304448535 16.3496012,0.550476166 C16.3495848,0.796540865 16.4050057,0.980020564 16.5158544,1.10093997 L16.5158544,1.10093997 Z M29.2926691,18.5701497 L29.2926691,8.66046667 C29.2721439,7.67404551 29.4294904,7.05211247 29.764743,6.79467991 C30.0999778,6.53727207 30.7362524,6.40959373 31.6735666,6.41164488 C31.7556539,6.32206122 31.7967181,6.18615353 31.7967181,6.00388476 C31.7967181,5.8216407 31.7556539,5.68573301 31.6735666,5.59612464 C31.0258814,5.60897526 30.4397802,5.62034312 29.9152588,5.63010465 C29.3907264,5.63998974 28.7909417,5.64505585 28.1159032,5.64555011 C27.4556784,5.64505585 26.8672961,5.63937192 26.3507536,5.63010465 C25.8342069,5.62021955 25.2458247,5.60897526 24.5856054,5.59612464 C24.5035044,5.6857083 24.4624539,5.8216407 24.4624539,6.00388476 C24.4624539,6.18615353 24.5035044,6.32207358 24.5856054,6.41164488 C25.5229114,6.40917361 26.159186,6.53727207 26.494429,6.79467991 C26.8296679,7.05211247 26.9870254,7.67404551 26.9665029,8.66046667 L26.9665029,18.5701497 C26.9870281,19.5565832 26.8296679,20.1785163 26.494429,20.4359365 C26.1591846,20.6933567 25.5229114,20.821035 24.5856054,20.8189839 C24.5035044,20.9085675 24.4624539,21.0444752 24.4624539,21.2267316 C24.4624539,21.4089881 24.5035044,21.5449081 24.5856054,21.6344918 C25.233281,21.6216411 25.8193822,21.6102733 26.3439118,21.6005118 C26.8684373,21.5906267 27.4682221,21.5855605 28.1432688,21.5850663 C28.8034854,21.5855729 29.3918676,21.5912445 29.9084184,21.6005118 C30.4249568,21.6103968 31.0133391,21.6216411 31.6735666,21.6344918 C31.7556539,21.5449081 31.7967181,21.4089881 31.7967181,21.2267316 C31.7967181,21.0444752 31.7556539,20.9085675 31.6735666,20.8189839 C30.7362524,20.8214551 30.0999778,20.6933567 29.764743,20.4359365 C29.4294959,20.1785163 29.2721384,19.5565832 29.2926691,18.5701497 L29.2926691,18.5701497 Z M41.9601103,21.8321936 C43.2947934,21.830958 44.5525177,21.5495417 45.7332861,20.9888716 C46.9140285,20.4282138 47.9733448,19.5972604 48.9112379,18.4960115 C48.8439425,18.3831979 48.7595645,18.293676 48.6580973,18.2272605 C48.5565931,18.1609068 48.431166,18.1269268 48.2818051,18.1253205 C47.3262384,19.0808755 46.3433198,19.7707562 45.3330492,20.1949873 C44.3227513,20.6192185 43.1893169,20.8272132 41.9327433,20.8189839 C40.5203119,20.7934062 39.3526688,20.4135097 38.4298125,19.6794673 C37.5069425,18.9454126 36.8197366,18.0109253 36.3681907,16.8759806 C35.9166379,15.7410359 35.6916237,14.5594212 35.6931481,13.3311118 C35.6984846,12.2635463 35.8445149,11.32015 36.1313553,10.5009229 C36.4181875,9.68172043 36.8139772,8.99410095 37.318726,8.43805206 C38.0056226,7.68692084 38.7253651,7.13192225 39.4779549,6.77305627 C40.2305296,6.41422736 40.9666923,6.23609797 41.686443,6.23865574 C43.5439425,6.27881393 44.9259569,6.70512096 45.8324901,7.51751505 C46.738996,8.32995856 47.3547453,9.28756467 47.6797393,10.3903334 C47.8417,10.4377818 47.9946104,10.4480376 48.1384718,10.4212243 C48.2823018,10.3945346 48.4304243,10.3430085 48.5828394,10.2667821 C48.5132725,9.6299349 48.4266039,9.0007981 48.3228556,8.37937167 C48.21908,7.75796996 48.1050458,7.11029861 47.9807722,6.43635762 C47.3307991,6.33602391 46.5782162,6.13518352 45.7230235,5.83398471 C44.8678034,5.53282297 43.6226227,5.36292292 41.9874773,5.32429691 C40.8255251,5.32800382 39.7559461,5.51171829 38.7787362,5.8741429 C37.801514,6.23660458 36.9098178,6.7535085 36.1036476,7.42485465 C35.187774,8.18677297 34.4771543,9.11503271 33.9717857,10.2096339 C33.466413,11.3042474 33.21008,12.5012458 33.2027809,13.8006537 C33.2019369,15.1523662 33.5229039,16.4358838 34.1656836,17.6512067 C34.8084592,18.8665419 35.7781158,19.8608341 37.0746575,20.6340955 C38.3711882,21.4073447 39.9996711,21.8067148 41.9601103,21.8321936 L41.9601103,21.8321936 Z M55.1095842,18.5701497 L55.1095842,8.66046667 C55.089059,7.67404551 55.2464055,7.05211247 55.5816595,6.79467991 C55.9168943,6.53727207 56.5531688,6.40959373 57.4904831,6.41164488 C57.5725704,6.32206122 57.6136346,6.18615353 57.6136346,6.00388476 C57.6136346,5.8216407 57.5725704,5.68573301 57.4904831,5.59612464 C56.8427979,5.60897526 56.2566953,5.62034312 55.7321752,5.63010465 C55.2076429,5.63998974 54.6078582,5.64505585 53.9328183,5.64555011 C53.2725949,5.64505585 52.6842126,5.63937192 52.1676687,5.63010465 C51.651122,5.62021955 51.0627397,5.60897526 50.4025205,5.59612464 C50.3204195,5.6857083 50.279369,5.8216407 50.279369,6.00388476 C50.279369,6.18615353 50.3204195,6.32207358 50.4025205,6.41164488 C51.3398279,6.40917361 51.976101,6.53727207 52.3113441,6.79467991 C52.646583,7.05211247 52.8039418,7.67404551 52.7834193,8.66046667 L52.7834193,18.5701497 C52.8039446,19.5565832 52.646583,20.1785163 52.3113441,20.4359365 C51.976101,20.6933567 51.3398265,20.821035 50.4025205,20.8189839 C50.3204195,20.9085675 50.279369,21.0444752 50.279369,21.2267316 C50.279369,21.4089881 50.3204195,21.5449081 50.4025205,21.6344918 C51.0501961,21.6216411 51.6362987,21.6102733 52.1608283,21.6005118 C52.6853524,21.5906267 53.2851372,21.5855605 53.9601853,21.5850663 C54.6204004,21.5855729 55.2087827,21.5912445 55.7253335,21.6005118 C56.2418719,21.6103968 56.8302556,21.6216411 57.4904831,21.6344918 C57.5725704,21.5449081 57.6136346,21.4089881 57.6136346,21.2267316 C57.6136346,21.0444752 57.5725704,20.9085675 57.4904831,20.8189839 C56.5531688,20.8214551 55.9168943,20.6933567 55.5816581,20.4359365 C55.246411,20.1785163 55.0890535,19.5565832 55.1095842,18.5701497 Z M63.1794296,7.89438425 C63.1554835,7.51495728 63.3059883,7.16177523 63.6309783,6.83483811 C63.9559518,6.5079257 64.5990667,6.33391098 65.5603271,6.31279394 C66.5438082,6.27115299 67.4092772,6.49660726 68.1567384,6.9892927 C68.904179,7.4820152 69.2975742,8.49212352 69.3369252,10.0196547 C69.332957,11.3438372 68.9851375,12.3035068 68.2935706,12.8986512 C67.6019833,13.493808 66.5905578,13.7862462 65.2592942,13.775941 C64.892118,13.7754344 64.4975817,13.7635846 64.0756865,13.741961 C63.6537777,13.7198431 63.3550259,13.6899407 63.1794296,13.6523773 L63.1794296,7.89438425 Z M60.8532647,8.66046667 L60.8532647,18.5701497 C60.87379,19.5565832 60.7164284,20.1785163 60.3811895,20.4359365 C60.0459451,20.6933567 59.4096719,20.821035 58.4723659,20.8189839 C58.3902649,20.9085675 58.3492144,21.0444752 58.3492144,21.2267316 C58.3492144,21.4089881 58.3902649,21.5449081 58.4723659,21.6344918 C59.1200415,21.6216411 59.7061427,21.6102733 60.2306723,21.6005118 C60.7551978,21.5906267 61.3549826,21.5855605 62.0300293,21.5850663 C62.7791872,21.5855729 63.4565109,21.5912445 64.062003,21.6005118 C64.6674842,21.6103968 65.3037574,21.6216411 65.9708266,21.6344918 C66.052914,21.5449081 66.0939645,21.4089881 66.0939781,21.2267316 C66.0939699,21.0444752 66.052914,20.9085675 65.9708266,20.8189839 C64.9206249,20.8103344 64.1885672,20.6794558 63.7746523,20.4266692 C63.3607264,20.1738826 63.1623198,19.5550387 63.1794296,18.5701497 L63.1794296,14.3690343 C63.4753257,14.4550346 63.8003047,14.5178296 64.1543667,14.5574689 C64.5084163,14.5971328 64.9223353,14.6166559 65.3961279,14.6161616 C67.8454333,14.5374515 69.5490044,13.9597419 70.5068494,12.8832058 C71.4646684,11.806682 71.9230588,10.7038886 71.8820233,9.5748255 C71.9430107,8.76602712 71.554179,7.90005583 70.71552,6.97693633 C69.8768337,6.05384155 68.2222933,5.5523831 65.7518934,5.47257332 C65.3527895,5.47998714 64.7758097,5.50865391 64.0209525,5.55906789 C63.2660845,5.60948187 62.5933215,5.63839577 62.0026637,5.64556246 C61.3424389,5.64506821 60.7540566,5.63938428 60.2375141,5.630117 C59.7209674,5.62023191 59.1325852,5.60898762 58.4723659,5.59613699 C58.3902649,5.68572066 58.3492144,5.82165305 58.3492144,6.00389712 C58.3492144,6.18616589 58.3902649,6.32208593 58.4723659,6.41165724 C59.4096719,6.40918597 60.0459465,6.53728443 60.3811895,6.79469227 C60.7164284,7.05212483 60.8737859,7.67405787 60.8532647,8.66047903 L60.8532647,8.66046667 Z M82.1241777,1.32088331 L78.7307135,3.44615379 C78.5579552,3.554272 78.4450677,3.64695711 78.392051,3.7241597 C78.3390275,3.80138699 78.3150813,3.88172809 78.3202126,3.96510886 C78.3218547,4.06704889 78.3595527,4.15355582 78.4331015,4.22459257 C78.5066366,4.29564169 78.6058475,4.33271079 78.7307135,4.33579988 C78.8504305,4.33703552 79.0009517,4.31578256 79.1822636,4.27092895 C79.3635604,4.2261989 79.5961771,4.14897161 79.8801125,4.03924706 L83.8209098,2.60593316 C83.4728864,2.07874875 82.9073104,1.65040292 82.1241777,1.32088331 L82.1241777,1.32088331 Z M80.0169461,12.6638803 L77.5265806,12.6638803 L77.5265806,7.72139511 C77.5265765,7.41662531 77.6086816,7.16126862 77.7728809,6.95531269 C77.937076,6.74939383 78.1833749,6.64230119 78.5117803,6.63404714 L81.3852783,6.63404714 C82.3744585,6.64022532 83.0711676,6.87552763 83.4754055,7.34144917 C83.879623,7.80739543 84.2137234,8.4694743 84.4777096,9.32771051 C84.8143073,9.36688019 85.1153402,9.32523924 85.3808096,9.20414684 C85.2992697,8.62392889 85.1886591,7.92476856 85.0489875,7.10667819 C84.9092913,6.28861253 84.8192101,5.79333226 84.7787425,5.62083737 C84.783258,5.5714119 84.7468052,5.54669917 84.6692745,5.54669917 C84.4508995,5.58327401 84.2513517,5.60897526 84.0706296,5.62392646 C83.8898842,5.63887767 83.6424441,5.64604436 83.3283093,5.64555011 L76.3498133,5.64555011 C76.2882375,5.64505585 75.8708935,5.63937192 75.0977895,5.63010465 C74.3246799,5.62021955 73.5652566,5.60897526 72.8195169,5.59612464 C72.7374159,5.6857083 72.6963654,5.8216407 72.6963654,6.00388476 C72.6963654,6.18615353 72.7374159,6.32207358 72.8195169,6.41164488 C73.7568229,6.40917361 74.3930974,6.53727207 74.7283405,6.79467991 C75.0635794,7.05211247 75.2209369,7.67404551 75.2004144,8.66046667 L75.2004144,18.5701497 C75.2209396,19.5565832 75.0635794,20.1785163 74.7283391,20.4359365 C74.3930961,20.6933567 73.7568229,20.821035 72.8195169,20.8189839 C72.7374159,20.9085675 72.6963654,21.0444752 72.6963654,21.2267316 C72.6963654,21.4089881 72.7374159,21.5449081 72.8195169,21.6344918 C73.5544234,21.6216411 74.3149866,21.6102733 75.1012104,21.6005118 C75.8874273,21.5906267 76.3127515,21.5855605 76.3771803,21.5850663 L82.26101,21.5850663 C82.9816542,21.5875376 83.7296751,21.5949514 84.5050752,21.609779 C85.2804507,21.624236 85.7000717,21.6323912 85.7639408,21.6344918 C85.9600554,21.0007213 86.1493407,20.3159809 86.3317992,19.5802704 C86.514229,18.8445599 86.6624651,18.1536413 86.7765061,17.5075145 C86.4941608,17.3526521 86.1748837,17.3114684 85.8186734,17.3839508 C85.5598186,18.2972841 85.1538797,19.0592518 84.6008584,19.6698541 C84.047811,20.2804563 83.258741,20.5975948 82.233643,20.621282 L78.5117789,20.621282 C78.2073197,20.6188107 77.9678612,20.5250259 77.7934034,20.3401746 C77.618936,20.1553481 77.5299946,19.8948388 77.5265792,19.5586468 L77.5265792,13.6029518 L80.0169447,13.6029518 C81.1332666,13.6034708 81.8288358,13.7445434 82.1036511,14.0261574 C82.3784486,14.3077837 82.5130012,14.7268623 82.5073102,15.2833931 C82.6065019,15.3575313 82.7570191,15.3946004 82.9588589,15.3946004 C83.1606782,15.3946127 83.311194,15.3575313 83.4104089,15.2833931 C83.3961507,14.866897 83.3836029,14.5013586 83.3727793,14.1867778 C83.3619693,13.8722218 83.3562359,13.5128616 83.3556749,13.1087095 C83.3562346,12.6988982 83.3619693,12.3323342 83.3727793,12.0090052 C83.3835893,11.6856884 83.396137,11.3438372 83.4104089,10.983439 C83.3111899,10.9093008 83.1606782,10.8722317 82.9588589,10.8722317 C82.7570191,10.8722441 82.6065033,10.9093008 82.5073102,10.983439 C82.5130573,11.6481127 82.3784527,12.0980822 82.1036511,12.3333474 C81.8288358,12.5686497 81.1332666,12.6788191 80.0169447,12.6638803 L80.0169461,12.6638803 Z M92.7926607,18.5701497 L92.7926607,8.66046667 C92.7721355,7.67404551 92.929482,7.05211247 93.2647346,6.79467991 C93.5999694,6.53727207 94.2362439,6.40959373 95.1735582,6.41164488 C95.2556455,6.32206122 95.2967097,6.18615353 95.2967097,6.00388476 C95.2967097,5.8216407 95.2556455,5.68573301 95.1735582,5.59612464 C94.525873,5.60897526 93.9397718,5.62034312 93.4152504,5.63010465 C92.890718,5.63998974 92.2909333,5.64505585 91.6158948,5.64555011 C90.95567,5.64505585 90.3672877,5.63937192 89.8507452,5.63010465 C89.3341985,5.62021955 88.7458162,5.60897526 88.085597,5.59612464 C88.003496,5.6857083 87.9624455,5.8216407 87.9624455,6.00388476 C87.9624455,6.18615353 88.003496,6.32207358 88.085597,6.41164488 C89.022903,6.40917361 89.6591775,6.53727207 89.9944206,6.79467991 C90.3296595,7.05211247 90.487017,7.67404551 90.4664945,8.66046667 L90.4664945,18.5701497 C90.4870197,19.5565832 90.3296595,20.1785163 89.9944206,20.4359365 C89.6591762,20.6933567 89.022903,20.821035 88.085597,20.8189839 C88.003496,20.9085675 87.9624455,21.0444752 87.9624455,21.2267316 C87.9624455,21.4089881 88.003496,21.5449081 88.085597,21.6344918 C88.7332726,21.6216411 89.3193738,21.6102733 89.8439034,21.6005118 C90.3684289,21.5906267 90.9682137,21.5855605 91.6432604,21.5850663 C92.303477,21.5855729 92.8918592,21.5912445 93.40841,21.6005118 C93.9249484,21.6103968 94.5133307,21.6216411 95.1735582,21.6344918 C95.2556455,21.5449081 95.2967097,21.4089881 95.2967097,21.2267316 C95.2967097,21.0444752 95.2556455,20.9085675 95.1735582,20.8189839 C94.2362439,20.8214551 93.5999694,20.6933567 93.2647346,20.4359365 C92.9294875,20.1785163 92.77213,19.5565832 92.7926607,18.5701497 Z M102.746698,18.8160414 L102.746698,2.76902486 C102.762858,2.19007962 103.053797,1.77166831 103.619525,1.51379092 C104.185236,1.2559506 104.928752,1.12945847 105.850076,1.13416819 C108.493226,1.17470749 110.591787,1.74265556 112.145781,2.83822051 C113.69972,3.93382254 114.810355,5.31483193 115.477658,6.98126106 C116.144934,8.6477149 116.470136,10.3574037 116.453278,12.1103274 C116.375556,15.4089708 115.413414,17.6525535 113.566963,18.8410631 C111.720456,20.0295726 109.456042,20.588377 106.7737,20.5174885 C105.021884,20.5137816 103.898141,20.3631946 103.40247,20.0670989 C102.906785,19.7710156 102.688194,19.3540006 102.746698,18.8160414 L102.746698,18.8160414 Z M101.158064,0.0667243837 C100.266762,0.0660571399 99.4724459,0.0593105633 98.7751128,0.0458421229 C98.0777743,0.0326208098 97.2834581,0.0172989143 96.3921628,0 C96.2813265,0.120968836 96.2259097,0.304448535 96.2259097,0.550476166 C96.2259097,0.796540865 96.2813278,0.980020564 96.3921628,1.10093997 C97.6575267,1.0984687 98.5164961,1.27055583 98.9690751,1.61805395 C99.4216473,1.96558914 99.6340809,2.80519194 99.6063759,4.13686237 L99.6063759,17.5149283 C99.634085,18.8466234 99.4216473,19.6862263 98.9690751,20.0337367 C98.5164961,20.3812596 97.6575253,20.5536309 96.3921628,20.5508507 C96.2813265,20.6718195 96.2259097,20.8552745 96.2259097,21.1013145 C96.2259097,21.3473669 96.2813278,21.5308466 96.3921628,21.6517907 C97.2665248,21.6343682 98.0577622,21.6191699 98.7658765,21.6059486 C99.4739853,21.5927272 100.283695,21.5858077 101.19501,21.5850663 C101.835382,21.5875376 102.65125,21.5989054 103.642614,21.6184285 C104.633962,21.637828 106.059421,21.6490723 107.918995,21.6517907 C109.708079,21.6761327 111.523852,21.3902434 113.366321,20.7942711 C115.208764,20.1982865 116.761827,19.1463642 118.025498,17.638492 C119.289128,16.1306321 119.947291,14.0210172 120,11.3096348 C119.912289,8.12360722 118.674575,5.46300949 116.287037,3.32784157 C113.899444,1.19271072 110.888431,0.0834301924 107.253985,0 C106.055572,0.00247127347 104.924134,0.0139626951 103.859666,0.0333621919 C102.795183,0.0528852523 101.89465,0.0640059829 101.158064,0.0667243837 L101.158064,0.0667243837 Z" id="wikipedia-wordmark-ga" fill="#000000" fill-rule="nonzero"></path>
    </g>
</svg>

<svg xmlns="http://www.w3.org/2000/svg" width="120" height="22"><path fill="#000" fill-rule="nonzero" d="M16.516 1.1c1.327.08 2.094.352 2.3.817.207.466.093 1.15-.342 2.053L12.64 17.348h-.17L6.592 3.77c-.454-.965-.563-1.629-.328-1.991.235-.363.967-.589 2.198-.678.11-.121.166-.304.166-.55 0-.247-.055-.43-.166-.551L6.116.046c-.708.013-1.416.02-2.124.02-.699 0-1.307-.007-1.825-.02C1.65.033.977.017.15 0 .04.121-.009.304.001.55c.011.247.073.43.185.55.993.048 1.676.27 2.048.668.372.398.792 1.187 1.259 2.369l7.296 17.081c.11.26.233.453.37.579a.683.683 0 0 0 .48.188.737.737 0 0 0 .516-.204c.142-.135.265-.322.37-.563l7.637-17.014c.31-.803.699-1.484 1.168-2.043.469-.56 1.29-.913 2.464-1.06.11-.121.166-.304.166-.55 0-.247-.055-.43-.166-.551-.729.017-1.35.033-1.861.046-.512.013-.975.02-1.39.02-.431 0-.992-.007-1.681-.02L16.516 0c-.111.121-.166.304-.166.55 0 .247.055.43.166.55Zm12.777 17.47V8.66c-.02-.986.136-1.608.472-1.865.335-.258.971-.385 1.909-.383.082-.09.123-.226.123-.408 0-.182-.041-.318-.123-.408l-1.759.034a100.641 100.641 0 0 1-3.564 0l-1.765-.034c-.082.09-.124.226-.124.408 0 .182.042.318.124.408.937-.003 1.573.125 1.908.383.336.257.493.879.473 1.865v9.91c.02.987-.137 1.609-.473 1.866-.335.257-.971.385-1.908.383-.082.09-.124.225-.124.408 0 .182.042.318.124.407l1.758-.033a100.64 100.64 0 0 1 3.564 0l1.766.033c.082-.09.123-.225.123-.407 0-.183-.041-.318-.123-.408-.938.002-1.574-.126-1.91-.383-.335-.257-.492-.88-.471-1.866Zm12.667 3.262a8.706 8.706 0 0 0 3.773-.843c1.181-.56 2.24-1.392 3.178-2.493a.812.812 0 0 0-.253-.269.687.687 0 0 0-.376-.102c-.956.956-1.939 1.646-2.949 2.07-1.01.424-2.144.632-3.4.624-1.413-.026-2.58-.405-3.503-1.14a6.655 6.655 0 0 1-2.062-2.803 9.47 9.47 0 0 1-.675-3.545c.005-1.067.152-2.01.438-2.83.287-.82.683-1.507 1.188-2.063.687-.751 1.406-1.306 2.159-1.665.753-.359 1.489-.537 2.208-.534 1.858.04 3.24.466 4.146 1.279.907.812 1.523 1.77 1.848 2.872a.98.98 0 0 0 .458.031c.144-.026.292-.078.445-.154a33.648 33.648 0 0 0-.26-1.888c-.104-.621-.218-1.269-.342-1.943-.65-.1-1.403-.3-2.258-.602-.855-.301-2.1-.471-3.736-.51-1.161.004-2.231.188-3.208.55a9.094 9.094 0 0 0-2.675 1.55 7.861 7.861 0 0 0-2.132 2.786c-.506 1.094-.762 2.291-.77 3.59 0 1.352.32 2.636.964 3.851.642 1.216 1.612 2.21 2.909 2.983 1.296.773 2.925 1.173 4.885 1.198Zm13.15-3.262V8.66c-.02-.986.136-1.608.472-1.865.335-.258.971-.385 1.908-.383.083-.09.124-.226.124-.408 0-.182-.041-.318-.124-.408l-1.758.034a100.641 100.641 0 0 1-3.564 0l-1.765-.034c-.083.09-.124.226-.124.408 0 .182.041.318.124.408.937-.003 1.573.125 1.908.383.336.257.493.879.472 1.865v9.91c.02.987-.136 1.609-.472 1.866-.335.257-.971.385-1.908.383-.083.09-.124.225-.124.408 0 .182.041.318.124.407a1449.6 1449.6 0 0 1 1.758-.033 100.64 100.64 0 0 1 3.564 0l1.765.033c.083-.09.124-.225.124-.407 0-.183-.041-.318-.124-.408-.937.002-1.573-.126-1.908-.383-.336-.257-.493-.88-.472-1.866Zm8.07-10.676c-.025-.379.126-.732.451-1.06.325-.326.968-.5 1.93-.521.983-.042 1.848.184 2.596.676.747.493 1.14 1.503 1.18 3.03-.004 1.325-.352 2.285-1.043 2.88-.692.595-1.703.887-3.035.877-.367 0-.761-.012-1.183-.034a6.513 6.513 0 0 1-.897-.09V7.894Zm-2.327.766v9.91c.02.987-.137 1.609-.472 1.866-.335.257-.971.385-1.909.383-.082.09-.123.225-.123.408 0 .182.041.318.123.407l1.759-.033c.524-.01 1.124-.015 1.799-.016.75 0 1.427.006 2.032.016s1.242.02 1.909.033c.082-.09.123-.225.123-.407 0-.183-.041-.318-.123-.408-1.05-.009-1.782-.14-2.196-.392-.414-.253-.613-.872-.596-1.857V14.37c.296.086.621.149.975.188.354.04.768.06 1.242.06 2.45-.08 4.153-.657 5.11-1.734.959-1.076 1.417-2.18 1.376-3.308.061-.809-.328-1.675-1.166-2.598-.84-.923-2.494-1.425-4.964-1.504-.4.007-.976.036-1.731.086-.755.05-1.428.08-2.018.087-.66 0-1.249-.007-1.765-.016l-1.766-.034c-.082.09-.123.226-.123.408 0 .182.041.318.123.408.938-.003 1.574.125 1.91.383.334.257.492.88.471 1.865Zm21.271-7.34-3.393 2.126c-.173.108-.286.201-.339.278a.377.377 0 0 0-.072.241c.002.102.04.189.113.26a.426.426 0 0 0 .298.11c.12.002.27-.02.451-.064.182-.045.414-.122.698-.232l3.94-1.433c-.347-.527-.913-.956-1.696-1.285Zm-2.107 11.344h-2.49V7.72c0-.304.082-.56.246-.766.164-.206.41-.313.739-.321h2.873c.99.006 1.686.242 2.09.707.405.466.739 1.128 1.003 1.987.336.039.637-.003.903-.124a73.69 73.69 0 0 0-.332-2.097c-.14-.818-.23-1.314-.27-1.486.004-.05-.032-.074-.11-.074a7.289 7.289 0 0 1-.598.077c-.181.015-.429.022-.743.022H76.35l-1.252-.016c-.773-.01-1.533-.021-2.278-.034-.083.09-.124.226-.124.408 0 .182.041.318.124.408.937-.003 1.573.125 1.908.383.336.257.493.879.472 1.865v9.91c.02.987-.136 1.609-.472 1.866-.335.257-.971.385-1.908.383-.083.09-.124.225-.124.408 0 .182.041.318.124.407a450.367 450.367 0 0 1 3.557-.049h5.884c.72.003 1.469.01 2.244.025l1.259.024c.196-.633.385-1.318.568-2.054.182-.735.33-1.426.445-2.072-.283-.155-.602-.197-.958-.124-.26.913-.665 1.675-1.218 2.286-.553.61-1.342.928-2.367.951h-3.722c-.305-.002-.544-.096-.719-.28-.174-.186-.263-.446-.266-.782v-5.956h2.49c1.116 0 1.812.142 2.087.423.274.282.409.7.403 1.257.1.075.25.112.452.112s.352-.037.451-.112l-.037-1.096a33.082 33.082 0 0 1 0-2.178c.01-.323.023-.665.037-1.026-.099-.074-.25-.11-.451-.11-.202 0-.352.036-.452.11.006.665-.129 1.115-.403 1.35-.275.236-.97.346-2.087.33Zm12.776 5.906V8.66c-.02-.986.136-1.608.472-1.865.335-.258.971-.385 1.909-.383.082-.09.123-.226.123-.408 0-.182-.041-.318-.123-.408l-1.759.034a100.641 100.641 0 0 1-3.564 0l-1.765-.034c-.083.09-.124.226-.124.408 0 .182.041.318.124.408.937-.003 1.573.125 1.908.383.336.257.493.879.472 1.865v9.91c.021.987-.136 1.609-.472 1.866-.335.257-.971.385-1.908.383-.083.09-.124.225-.124.408 0 .182.041.318.124.407l1.758-.033a100.64 100.64 0 0 1 3.564 0l1.766.033c.082-.09.123-.225.123-.407 0-.183-.041-.318-.123-.408-.938.002-1.574-.126-1.91-.383-.335-.257-.492-.88-.471-1.866Zm9.954.246V2.769c.016-.579.307-.997.873-1.255.565-.258 1.309-.385 2.23-.38 2.643.04 4.742.609 6.296 1.704 1.554 1.096 2.664 2.477 3.332 4.143a13.33 13.33 0 0 1 .975 5.13c-.077 3.298-1.04 5.542-2.886 6.73-1.847 1.189-4.111 1.747-6.793 1.676-1.752-.003-2.876-.154-3.372-.45-.495-.296-.714-.713-.655-1.251ZM101.158.066c-.891 0-1.686-.007-2.383-.02L96.392 0c-.11.121-.166.304-.166.55 0 .247.055.43.166.55 1.266-.002 2.124.17 2.577.518.453.348.665 1.187.637 2.519v13.378c.028 1.332-.184 2.171-.637 2.519-.453.347-1.311.52-2.577.517-.11.12-.166.304-.166.55 0 .246.055.43.166.55a1891.9 1891.9 0 0 1 2.374-.045c.708-.013 1.518-.02 2.429-.02.64.002 1.456.013 2.448.032.991.02 2.416.031 4.276.034 1.79.024 3.605-.262 5.447-.858 1.843-.596 3.396-1.648 4.66-3.156 1.263-1.507 1.921-3.617 1.974-6.328-.088-3.186-1.325-5.847-3.713-7.982S110.888.083 107.254 0c-1.198.002-2.33.014-3.394.033-1.065.02-1.965.031-2.702.034Z"/></svg>
